X:1
T:Vaga e lucente
T:Vaga e lucente
T:Claudio Saracini
T:Source : Le secondo Musische per cantar e sonar---Venetia---A.Vincenti---1620. Editor : André Vierendeels (04/12/15).
T:Aria
T:Notes : Original clefs  C1, F4 Editorial accidentals above the staff 
C:Claudio Saracini
%%score 1 2
L:1/8
Q:1/4=80
M:3/4
K:F
V:1 treble nm="Soprano" snm="S"
V:2 bass nm="BC" snm="BC"
V:1
 c2 F2 G2 | A3 B c2 | d3 c =B2 | c4 c2 | A3 B c2 | d4 d2 | e6 | d6 :: d2 A2 B2 | c2 B2 A2 | G4 G2 | %11
w: Va- ga'e lu-|cen- te, nel|o- * ri-|en- te,|sor- ge la|bel- le'Au-|ro-|ra.|Ca- re per-|let- te, scu-|ra l'her-|
w: Lie- ti gli'Au-|gel- li, con|can- * ti|bel- li,|ch'ia- ma- no'il|nuo- vo|gior-|no.|La pec- co-|rel- le, fe-|sto- s'e|
w: A- vi- d'e|lie- te, tur-|ban _ la|quie- te,|a fio- ri'a|l'her- be'a|fon-|ti.|Gi- a l'au-|ro- ra, mu-|ta'in ro-|
w: Lan- guo- no'i|fio- ri, mu-|tan _ co-|lo- ri,|si sec- can|le ru-|gia-|de.|A gl'au- gel-|let- ti, in-|tio- ra'i|
w: La po- ve-|rel- la, stel-|la _ sua|cel- la,|Fag- ge quei|rag- gi'ar-|den-|ti.|Ne vuol lan-|gui- re, ne|puo sof-|
 A4 A2 | z2 B2 B/A/B/c/ | d2 B2 AG | ^F2 G2 G2 | A2 A/G/A/B/ c2 | A2 GF E2 | F4 F2 :| %18
w: bet- te,|con spar- * * *|* ge'i fior _|in- do- ra,|con spar- * * * *|ge'i fior _ in-|do- ra.|
w: bel- le,|es- co- * * *|* no'al pra- *|to'a- dor- no,|es- co- * * * *|no'al pra- * to'a-|dor- no.|
w: so- ra,|il so- * * *|* l'e'a- do- *|ra'i mon- ti,|il so- * * * *|le'a do- * ra'i|mon- ti.|
w: pet- ti,|il cal- * * *|* do de _|l'es- ta- te,|il cal- * * * *|do de _ l'es-|ta- te.|
w: fri- re,|quel- le _ _ _|_ fiam me _|con- cen- ti,|quel- le _ _ _ _|fiam- me _ con-|cen- ti.|
V:2
 F,6 | F,,4 A,,2 | G,,6 | C,4 C,2 | F,,3 G,, A,,2 | B,,4 G,,2 | A,,6 | D,6 :: B,,2 F,,2 G,,2 | %9
 A,,2 G,,2 F,,2 | C,4 C,2 | F,,4 F,,2 | G,,4 G,,2 | G,4 D,2- | D,2 G,,4 | F,,6 | A,,2 C,4 | %17
 F,,4 F,,2 :| %18

